src/pages/elements/images/type-color-dont-1.svg

<svg xmlns="http://www.w3.org/2000/svg" viewBox="0 0 288 288"><g fill="none" fill-rule="evenodd"><path fill="#FFF" d="M0 0h288v288H0z"/><path d="M72.16 125h-6.72v-1.68h2.352v-13.392H65.44v-1.68h6.72v1.68h-2.352v13.392h2.352V125zm4.824-18c1.008 0 1.464.576 1.464 1.416v.336c0 1.296-.816 3.072-2.184 4.248h-1.608c.96-1.008 1.536-1.848 1.8-2.976-.648-.144-.936-.624-.936-1.272v-.336c0-.84.456-1.416 1.464-1.416zm6.168 18h-1.92v-12.384h1.92v2.016h.096c.552-1.272 1.416-2.304 3.336-2.304 1.632 0 3.12.744 3.792 2.52h.048c.456-1.344 1.656-2.52 3.768-2.52 2.52 0 4.032 1.728 4.032 4.728V125h-1.92v-7.608c0-2.184-.84-3.336-2.712-3.336-1.512 0-2.904.768-2.904 2.352V125h-1.92v-7.608c0-2.208-.84-3.336-2.664-3.336-1.512 0-2.952.768-2.952 2.352V125zm34.776 0h-1.08c-1.416 0-1.992-.864-2.136-2.016h-.12c-.528 1.512-1.848 2.304-3.576 2.304-2.616 0-4.152-1.44-4.152-3.744 0-2.328 1.68-3.624 5.28-3.624h2.448v-1.224c0-1.752-.96-2.712-2.928-2.712-1.488 0-2.472.72-3.144 1.848l-1.152-1.08c.672-1.32 2.16-2.424 4.392-2.424 2.976 0 4.752 1.56 4.752 4.176v6.816h1.416V125zm-6.6-1.344c1.896 0 3.264-.984 3.264-2.256v-2.04h-2.544c-2.184 0-3.168.672-3.168 1.872v.504c0 1.224.96 1.92 2.448 1.92zm16.92 1.344h-1.92v-12.384h1.92v2.016h.096c.552-1.272 1.416-2.304 3.336-2.304 1.632 0 3.12.744 3.792 2.52h.048c.456-1.344 1.656-2.52 3.768-2.52 2.52 0 4.032 1.728 4.032 4.728V125h-1.92v-7.608c0-2.184-.84-3.336-2.712-3.336-1.512 0-2.904.768-2.904 2.352V125h-1.92v-7.608c0-2.208-.84-3.336-2.664-3.336-1.512 0-2.952.768-2.952 2.352V125zm29.112 0h-1.08c-1.416 0-1.992-.864-2.136-2.016h-.12c-.528 1.512-1.848 2.304-3.576 2.304-2.616 0-4.152-1.44-4.152-3.744 0-2.328 1.68-3.624 5.28-3.624h2.448v-1.224c0-1.752-.96-2.712-2.928-2.712-1.488 0-2.472.72-3.144 1.848l-1.152-1.08c.672-1.32 2.16-2.424 4.392-2.424 2.976 0 4.752 1.56 4.752 4.176v6.816h1.416V125zm-6.6-1.344c1.896 0 3.264-.984 3.264-2.256v-2.04h-2.544c-2.184 0-3.168.672-3.168 1.872v.504c0 1.224.96 1.92 2.448 1.92zm19.776 2.712c0 2.544-2.016 3.72-6 3.72-3.864 0-5.448-1.104-5.448-3.048 0-1.344.744-2.064 1.968-2.4v-.264c-.696-.336-1.104-.888-1.104-1.728 0-1.248.888-1.848 2.136-2.16v-.096c-1.464-.696-2.328-2.064-2.328-3.792 0-2.52 1.848-4.272 4.656-4.272.888 0 1.68.168 2.352.48v-.216c0-.96.408-1.656 1.44-1.656h1.848v1.68h-2.352v.792c.888.768 1.416 1.872 1.416 3.192 0 2.52-1.848 4.272-4.68 4.272-.408 0-.84-.048-1.2-.12-.816.216-1.632.624-1.632 1.392 0 .744.768.936 1.896.936h2.64c3.072 0 4.392 1.248 4.392 3.288zm-1.8.144c0-.984-.648-1.632-2.568-1.632h-4.128c-.792.36-1.152.912-1.152 1.68 0 1.08.744 1.968 2.688 1.968h1.776c2.136 0 3.384-.672 3.384-2.016zm-4.296-7.176c1.632 0 2.664-.768 2.664-2.4v-.672c0-1.632-1.032-2.4-2.664-2.4-1.632 0-2.664.768-2.664 2.4v.672c0 1.632 1.032 2.4 2.664 2.4zm12.84 5.952c-3.36 0-5.568-2.544-5.568-6.48 0-3.936 2.208-6.48 5.568-6.48 3.312 0 5.352 2.544 5.352 6.048v.912h-8.904v.576c0 2.136 1.368 3.744 3.672 3.744 1.56 0 2.76-.768 3.408-2.136l1.368.984c-.792 1.68-2.568 2.832-4.896 2.832zm0-11.352c-2.088 0-3.552 1.584-3.552 3.744v.168h6.84v-.264c0-2.184-1.32-3.648-3.288-3.648zM187.72 125h-1.92v-12.384h1.92v2.016h.096c.6-1.392 1.656-2.304 3.504-2.304 2.544 0 4.152 1.728 4.152 4.728V125h-1.92v-7.608c0-2.208-.96-3.336-2.808-3.336-1.536 0-3.024.768-3.024 2.352V125zm16.848 0h-2.4c-1.32 0-2.04-.84-2.04-2.04v-8.664h-2.04v-1.68h1.152c.816 0 1.08-.288 1.08-1.128v-2.304h1.728v3.432h2.712v1.68h-2.712v9.024h2.52V125zm13.368 0h-1.08c-1.416 0-1.992-.864-2.136-2.016h-.12c-.528 1.512-1.848 2.304-3.576 2.304-2.616 0-4.152-1.44-4.152-3.744 0-2.328 1.68-3.624 5.28-3.624h2.448v-1.224c0-1.752-.96-2.712-2.928-2.712-1.488 0-2.472.72-3.144 1.848l-1.152-1.08c.672-1.32 2.16-2.424 4.392-2.424 2.976 0 4.752 1.56 4.752 4.176v6.816h1.416V125zm-6.6-1.344c1.896 0 3.264-.984 3.264-2.256v-2.04h-2.544c-2.184 0-3.168.672-3.168 1.872v.504c0 1.224.96 1.92 2.448 1.92zM69.76 155.288c-2.28 0-3.792-.96-4.896-2.424l1.368-1.104c.96 1.2 2.112 1.896 3.672 1.896 1.632 0 2.592-.744 2.592-2.016 0-.96-.528-1.704-2.16-1.944l-.984-.144c-2.28-.336-3.984-1.272-3.984-3.576 0-2.448 1.896-3.648 4.416-3.648 1.992 0 3.312.744 4.32 1.992l-1.272 1.152c-.552-.768-1.608-1.512-3.192-1.512s-2.424.744-2.424 1.92c0 1.2.84 1.68 2.376 1.92l.96.144c2.736.408 3.792 1.608 3.792 3.48 0 2.4-1.752 3.864-4.584 3.864zm12.624 0c-3.36 0-5.568-2.544-5.568-6.48 0-3.936 2.208-6.48 5.568-6.48 3.312 0 5.352 2.544 5.352 6.048v.912h-8.904v.576c0 2.136 1.368 3.744 3.672 3.744 1.56 0 2.76-.768 3.408-2.136l1.368.984c-.792 1.68-2.568 2.832-4.896 2.832zm0-11.352c-2.088 0-3.552 1.584-3.552 3.744v.168h6.84v-.264c0-2.184-1.32-3.648-3.288-3.648zM92.824 155h-1.92v-12.384h1.92v2.016h.096c.6-1.392 1.656-2.304 3.504-2.304 2.544 0 4.152 1.728 4.152 4.728V155h-1.92v-7.608c0-2.208-.96-3.336-2.808-3.336-1.536 0-3.024.768-3.024 2.352V155zm16.848 0h-2.4c-1.32 0-2.04-.84-2.04-2.04v-8.664h-2.04v-1.68h1.152c.816 0 1.08-.288 1.08-1.128v-2.304h1.728v3.432h2.712v1.68h-2.712v9.024h2.52V155zm7.848.288c-3.36 0-5.568-2.544-5.568-6.48 0-3.936 2.208-6.48 5.568-6.48 3.312 0 5.352 2.544 5.352 6.048v.912h-8.904v.576c0 2.136 1.368 3.744 3.672 3.744 1.56 0 2.76-.768 3.408-2.136l1.368.984c-.792 1.68-2.568 2.832-4.896 2.832zm0-11.352c-2.088 0-3.552 1.584-3.552 3.744v.168h6.84v-.264c0-2.184-1.32-3.648-3.288-3.648zM127.96 155h-1.92v-12.384h1.92v2.016h.096c.6-1.392 1.656-2.304 3.504-2.304 2.544 0 4.152 1.728 4.152 4.728V155h-1.92v-7.608c0-2.208-.96-3.336-2.808-3.336-1.536 0-3.024.768-3.024 2.352V155zm16.32.288c-3.48 0-5.52-2.52-5.52-6.48 0-3.96 2.04-6.48 5.52-6.48 2.448 0 3.912 1.2 4.632 2.904l-1.608.816c-.456-1.272-1.512-2.016-3.024-2.016-2.28 0-3.456 1.56-3.456 3.72v2.112c0 2.16 1.176 3.72 3.456 3.72 1.56 0 2.688-.744 3.36-2.16l1.392.936c-.792 1.776-2.4 2.928-4.752 2.928zm11.976 0c-3.36 0-5.568-2.544-5.568-6.48 0-3.936 2.208-6.48 5.568-6.48 3.312 0 5.352 2.544 5.352 6.048v.912h-8.904v.576c0 2.136 1.368 3.744 3.672 3.744 1.56 0 2.76-.768 3.408-2.136l1.368.984c-.792 1.68-2.568 2.832-4.896 2.832zm0-11.352c-2.088 0-3.552 1.584-3.552 3.744v.168h6.84v-.264c0-2.184-1.32-3.648-3.288-3.648zM171.112 155v-10.704h-2.016v-1.68h2.016v-2.496c0-1.704.888-2.88 2.712-2.88h1.872v1.68h-2.664v3.696h2.664v1.68h-2.664V155h-1.92zm11.688.288c-3.312 0-5.592-2.544-5.592-6.48 0-3.936 2.28-6.48 5.592-6.48s5.592 2.544 5.592 6.48c0 3.936-2.28 6.48-5.592 6.48zm0-1.704c2.064 0 3.528-1.272 3.528-3.888v-1.776c0-2.616-1.464-3.888-3.528-3.888s-3.528 1.272-3.528 3.888v1.776c0 2.616 1.464 3.888 3.528 3.888zM193.48 155h-1.92v-12.384h1.92v2.28h.12c.432-1.176 1.56-2.28 3.576-2.28h.744v1.92h-1.128c-2.064 0-3.312.888-3.312 2.064v8.4zM67.96 185h-1.92v-12.384h1.92v2.016h.096c.6-1.392 1.656-2.304 3.504-2.304 2.544 0 4.152 1.728 4.152 4.728V185h-1.92v-7.608c0-2.208-.96-3.336-2.808-3.336-1.536 0-3.024.768-3.024 2.352V185zm16.392.288c-3.312 0-5.592-2.544-5.592-6.48 0-3.936 2.28-6.48 5.592-6.48s5.592 2.544 5.592 6.48c0 3.936-2.28 6.48-5.592 6.48zm0-1.704c2.064 0 3.528-1.272 3.528-3.888v-1.776c0-2.616-1.464-3.888-3.528-3.888s-3.528 1.272-3.528 3.888v1.776c0 2.616 1.464 3.888 3.528 3.888zM100.696 185h-1.92v-12.384h1.92v2.28h.12c.432-1.176 1.56-2.28 3.576-2.28h.744v1.92h-1.128c-2.064 0-3.312.888-3.312 2.064v8.4zm11.424.288c-3.36 0-5.568-2.544-5.568-6.48 0-3.936 2.208-6.48 5.568-6.48 3.312 0 5.352 2.544 5.352 6.048v.912h-8.904v.576c0 2.136 1.368 3.744 3.672 3.744 1.56 0 2.76-.768 3.408-2.136l1.368.984c-.792 1.68-2.568 2.832-4.896 2.832zm0-11.352c-2.088 0-3.552 1.584-3.552 3.744v.168h6.84v-.264c0-2.184-1.32-3.648-3.288-3.648zM130.72 185h-1.08c-1.416 0-1.992-.864-2.136-2.016h-.12c-.528 1.512-1.848 2.304-3.576 2.304-2.616 0-4.152-1.44-4.152-3.744 0-2.328 1.68-3.624 5.28-3.624h2.448v-1.224c0-1.752-.96-2.712-2.928-2.712-1.488 0-2.472.72-3.144 1.848l-1.152-1.08c.672-1.32 2.16-2.424 4.392-2.424 2.976 0 4.752 1.56 4.752 4.176v6.816h1.416V185zm-6.6-1.344c1.896 0 3.264-.984 3.264-2.256v-2.04h-2.544c-2.184 0-3.168.672-3.168 1.872v.504c0 1.224.96 1.92 2.448 1.92zm13.056 1.632c-2.28 0-3.792-.96-4.896-2.424l1.368-1.104c.96 1.2 2.112 1.896 3.672 1.896 1.632 0 2.592-.744 2.592-2.016 0-.96-.528-1.704-2.16-1.944l-.984-.144c-2.28-.336-3.984-1.272-3.984-3.576 0-2.448 1.896-3.648 4.416-3.648 1.992 0 3.312.744 4.32 1.992l-1.272 1.152c-.552-.768-1.608-1.512-3.192-1.512s-2.424.744-2.424 1.92c0 1.2.84 1.68 2.376 1.92l.96.144c2.736.408 3.792 1.608 3.792 3.48 0 2.4-1.752 3.864-4.584 3.864zm12.648 0c-3.312 0-5.592-2.544-5.592-6.48 0-3.936 2.28-6.48 5.592-6.48s5.592 2.544 5.592 6.48c0 3.936-2.28 6.48-5.592 6.48zm0-1.704c2.064 0 3.528-1.272 3.528-3.888v-1.776c0-2.616-1.464-3.888-3.528-3.888s-3.528 1.272-3.528 3.888v1.776c0 2.616 1.464 3.888 3.528 3.888zm10.68 1.416h-1.92v-12.384h1.92v2.016h.096c.6-1.392 1.656-2.304 3.504-2.304 2.544 0 4.152 1.728 4.152 4.728V185h-1.92v-7.608c0-2.208-.96-3.336-2.808-3.336-1.536 0-3.024.768-3.024 2.352V185z" fill="#EE538B"/></g></svg>

<?xml version="1.0" encoding="UTF-8"?>
<svg width="288px" height="288px" viewBox="0 0 288 288" version="1.1" xmlns="http://www.w3.org/2000/svg" xmlns:xlink="http://www.w3.org/1999/xlink">
    <!-- Generator: Sketch 51.3 (57544) - http://www.bohemiancoding.com/sketch -->
    <title>Group 5</title>
    <desc>Created with Sketch.</desc>
    <defs></defs>
    <g id="Page-1" stroke="none" stroke-width="1" fill="none" fill-rule="evenodd">
        <g id="Type-Specs" transform="translate(-672.000000, -341.000000)">
            <g id="Group-5" transform="translate(672.000000, 341.000000)">
                <rect id="Rectangle-16-Copy-169" fill="#FFFFFF" x="0" y="0" width="288" height="288"></rect>
                <path d="M72.16,125 L65.44,125 L65.44,123.32 L67.792,123.32 L67.792,109.928 L65.44,109.928 L65.44,108.248 L72.16,108.248 L72.16,109.928 L69.808,109.928 L69.808,123.32 L72.16,123.32 L72.16,125 Z M76.984,107 C77.992,107 78.448,107.576 78.448,108.416 L78.448,108.752 C78.448,110.048 77.632,111.824 76.264,113 L74.656,113 C75.616,111.992 76.192,111.152 76.456,110.024 C75.808,109.88 75.52,109.4 75.52,108.752 L75.52,108.416 C75.52,107.576 75.976,107 76.984,107 Z M83.152,125 L81.232,125 L81.232,112.616 L83.152,112.616 L83.152,114.632 L83.248,114.632 C83.8,113.36 84.664,112.328 86.584,112.328 C88.216,112.328 89.704,113.072 90.376,114.848 L90.424,114.848 C90.88,113.504 92.08,112.328 94.192,112.328 C96.712,112.328 98.224,114.056 98.224,117.056 L98.224,125 L96.304,125 L96.304,117.392 C96.304,115.208 95.464,114.056 93.592,114.056 C92.08,114.056 90.688,114.824 90.688,116.408 L90.688,125 L88.768,125 L88.768,117.392 C88.768,115.184 87.928,114.056 86.104,114.056 C84.592,114.056 83.152,114.824 83.152,116.408 L83.152,125 Z M117.928,125 L116.848,125 C115.432,125 114.856,124.136 114.712,122.984 L114.592,122.984 C114.064,124.496 112.744,125.288 111.016,125.288 C108.4,125.288 106.864,123.848 106.864,121.544 C106.864,119.216 108.544,117.92 112.144,117.92 L114.592,117.92 L114.592,116.696 C114.592,114.944 113.632,113.984 111.664,113.984 C110.176,113.984 109.192,114.704 108.52,115.832 L107.368,114.752 C108.04,113.432 109.528,112.328 111.76,112.328 C114.736,112.328 116.512,113.888 116.512,116.504 L116.512,123.32 L117.928,123.32 L117.928,125 Z M111.328,123.656 C113.224,123.656 114.592,122.672 114.592,121.4 L114.592,119.36 L112.048,119.36 C109.864,119.36 108.88,120.032 108.88,121.232 L108.88,121.736 C108.88,122.96 109.84,123.656 111.328,123.656 Z M128.248,125 L126.328,125 L126.328,112.616 L128.248,112.616 L128.248,114.632 L128.344,114.632 C128.896,113.36 129.76,112.328 131.68,112.328 C133.312,112.328 134.8,113.072 135.472,114.848 L135.52,114.848 C135.976,113.504 137.176,112.328 139.288,112.328 C141.808,112.328 143.32,114.056 143.32,117.056 L143.32,125 L141.4,125 L141.4,117.392 C141.4,115.208 140.56,114.056 138.688,114.056 C137.176,114.056 135.784,114.824 135.784,116.408 L135.784,125 L133.864,125 L133.864,117.392 C133.864,115.184 133.024,114.056 131.2,114.056 C129.688,114.056 128.248,114.824 128.248,116.408 L128.248,125 Z M157.36,125 L156.28,125 C154.864,125 154.288,124.136 154.144,122.984 L154.024,122.984 C153.496,124.496 152.176,125.288 150.448,125.288 C147.832,125.288 146.296,123.848 146.296,121.544 C146.296,119.216 147.976,117.92 151.576,117.92 L154.024,117.92 L154.024,116.696 C154.024,114.944 153.064,113.984 151.096,113.984 C149.608,113.984 148.624,114.704 147.952,115.832 L146.8,114.752 C147.472,113.432 148.96,112.328 151.192,112.328 C154.168,112.328 155.944,113.888 155.944,116.504 L155.944,123.32 L157.36,123.32 L157.36,125 Z M150.76,123.656 C152.656,123.656 154.024,122.672 154.024,121.4 L154.024,119.36 L151.48,119.36 C149.296,119.36 148.312,120.032 148.312,121.232 L148.312,121.736 C148.312,122.96 149.272,123.656 150.76,123.656 Z M170.536,126.368 C170.536,128.912 168.52,130.088 164.536,130.088 C160.672,130.088 159.088,128.984 159.088,127.04 C159.088,125.696 159.832,124.976 161.056,124.64 L161.056,124.376 C160.36,124.04 159.952,123.488 159.952,122.648 C159.952,121.4 160.84,120.8 162.088,120.488 L162.088,120.392 C160.624,119.696 159.76,118.328 159.76,116.6 C159.76,114.08 161.608,112.328 164.416,112.328 C165.304,112.328 166.096,112.496 166.768,112.808 L166.768,112.592 C166.768,111.632 167.176,110.936 168.208,110.936 L170.056,110.936 L170.056,112.616 L167.704,112.616 L167.704,113.408 C168.592,114.176 169.12,115.28 169.12,116.6 C169.12,119.12 167.272,120.872 164.44,120.872 C164.032,120.872 163.6,120.824 163.24,120.752 C162.424,120.968 161.608,121.376 161.608,122.144 C161.608,122.888 162.376,123.08 163.504,123.08 L166.144,123.08 C169.216,123.08 170.536,124.328 170.536,126.368 Z M168.736,126.512 C168.736,125.528 168.088,124.88 166.168,124.88 L162.04,124.88 C161.248,125.24 160.888,125.792 160.888,126.56 C160.888,127.64 161.632,128.528 163.576,128.528 L165.352,128.528 C167.488,128.528 168.736,127.856 168.736,126.512 Z M164.44,119.336 C166.072,119.336 167.104,118.568 167.104,116.936 L167.104,116.264 C167.104,114.632 166.072,113.864 164.44,113.864 C162.808,113.864 161.776,114.632 161.776,116.264 L161.776,116.936 C161.776,118.568 162.808,119.336 164.44,119.336 Z M177.28,125.288 C173.92,125.288 171.712,122.744 171.712,118.808 C171.712,114.872 173.92,112.328 177.28,112.328 C180.592,112.328 182.632,114.872 182.632,118.376 L182.632,119.288 L173.728,119.288 L173.728,119.864 C173.728,122 175.096,123.608 177.4,123.608 C178.96,123.608 180.16,122.84 180.808,121.472 L182.176,122.456 C181.384,124.136 179.608,125.288 177.28,125.288 Z M177.28,113.936 C175.192,113.936 173.728,115.52 173.728,117.68 L173.728,117.848 L180.568,117.848 L180.568,117.584 C180.568,115.4 179.248,113.936 177.28,113.936 Z M187.72,125 L185.8,125 L185.8,112.616 L187.72,112.616 L187.72,114.632 L187.816,114.632 C188.416,113.24 189.472,112.328 191.32,112.328 C193.864,112.328 195.472,114.056 195.472,117.056 L195.472,125 L193.552,125 L193.552,117.392 C193.552,115.184 192.592,114.056 190.744,114.056 C189.208,114.056 187.72,114.824 187.72,116.408 L187.72,125 Z M204.568,125 L202.168,125 C200.848,125 200.128,124.16 200.128,122.96 L200.128,114.296 L198.088,114.296 L198.088,112.616 L199.24,112.616 C200.056,112.616 200.32,112.328 200.32,111.488 L200.32,109.184 L202.048,109.184 L202.048,112.616 L204.76,112.616 L204.76,114.296 L202.048,114.296 L202.048,123.32 L204.568,123.32 L204.568,125 Z M217.936,125 L216.856,125 C215.44,125 214.864,124.136 214.72,122.984 L214.6,122.984 C214.072,124.496 212.752,125.288 211.024,125.288 C208.408,125.288 206.872,123.848 206.872,121.544 C206.872,119.216 208.552,117.92 212.152,117.92 L214.6,117.92 L214.6,116.696 C214.6,114.944 213.64,113.984 211.672,113.984 C210.184,113.984 209.2,114.704 208.528,115.832 L207.376,114.752 C208.048,113.432 209.536,112.328 211.768,112.328 C214.744,112.328 216.52,113.888 216.52,116.504 L216.52,123.32 L217.936,123.32 L217.936,125 Z M211.336,123.656 C213.232,123.656 214.6,122.672 214.6,121.4 L214.6,119.36 L212.056,119.36 C209.872,119.36 208.888,120.032 208.888,121.232 L208.888,121.736 C208.888,122.96 209.848,123.656 211.336,123.656 Z M69.76,155.288 C67.48,155.288 65.968,154.328 64.864,152.864 L66.232,151.76 C67.192,152.96 68.344,153.656 69.904,153.656 C71.536,153.656 72.496,152.912 72.496,151.64 C72.496,150.68 71.968,149.936 70.336,149.696 L69.352,149.552 C67.072,149.216 65.368,148.28 65.368,145.976 C65.368,143.528 67.264,142.328 69.784,142.328 C71.776,142.328 73.096,143.072 74.104,144.32 L72.832,145.472 C72.28,144.704 71.224,143.96 69.64,143.96 C68.056,143.96 67.216,144.704 67.216,145.88 C67.216,147.08 68.056,147.56 69.592,147.8 L70.552,147.944 C73.288,148.352 74.344,149.552 74.344,151.424 C74.344,153.824 72.592,155.288 69.76,155.288 Z M82.384,155.288 C79.024,155.288 76.816,152.744 76.816,148.808 C76.816,144.872 79.024,142.328 82.384,142.328 C85.696,142.328 87.736,144.872 87.736,148.376 L87.736,149.288 L78.832,149.288 L78.832,149.864 C78.832,152 80.2,153.608 82.504,153.608 C84.064,153.608 85.264,152.84 85.912,151.472 L87.28,152.456 C86.488,154.136 84.712,155.288 82.384,155.288 Z M82.384,143.936 C80.296,143.936 78.832,145.52 78.832,147.68 L78.832,147.848 L85.672,147.848 L85.672,147.584 C85.672,145.4 84.352,143.936 82.384,143.936 Z M92.824,155 L90.904,155 L90.904,142.616 L92.824,142.616 L92.824,144.632 L92.92,144.632 C93.52,143.24 94.576,142.328 96.424,142.328 C98.968,142.328 100.576,144.056 100.576,147.056 L100.576,155 L98.656,155 L98.656,147.392 C98.656,145.184 97.696,144.056 95.848,144.056 C94.312,144.056 92.824,144.824 92.824,146.408 L92.824,155 Z M109.672,155 L107.272,155 C105.952,155 105.232,154.16 105.232,152.96 L105.232,144.296 L103.192,144.296 L103.192,142.616 L104.344,142.616 C105.16,142.616 105.424,142.328 105.424,141.488 L105.424,139.184 L107.152,139.184 L107.152,142.616 L109.864,142.616 L109.864,144.296 L107.152,144.296 L107.152,153.32 L109.672,153.32 L109.672,155 Z M117.52,155.288 C114.16,155.288 111.952,152.744 111.952,148.808 C111.952,144.872 114.16,142.328 117.52,142.328 C120.832,142.328 122.872,144.872 122.872,148.376 L122.872,149.288 L113.968,149.288 L113.968,149.864 C113.968,152 115.336,153.608 117.64,153.608 C119.2,153.608 120.4,152.84 121.048,151.472 L122.416,152.456 C121.624,154.136 119.848,155.288 117.52,155.288 Z M117.52,143.936 C115.432,143.936 113.968,145.52 113.968,147.68 L113.968,147.848 L120.808,147.848 L120.808,147.584 C120.808,145.4 119.488,143.936 117.52,143.936 Z M127.96,155 L126.04,155 L126.04,142.616 L127.96,142.616 L127.96,144.632 L128.056,144.632 C128.656,143.24 129.712,142.328 131.56,142.328 C134.104,142.328 135.712,144.056 135.712,147.056 L135.712,155 L133.792,155 L133.792,147.392 C133.792,145.184 132.832,144.056 130.984,144.056 C129.448,144.056 127.96,144.824 127.96,146.408 L127.96,155 Z M144.28,155.288 C140.8,155.288 138.76,152.768 138.76,148.808 C138.76,144.848 140.8,142.328 144.28,142.328 C146.728,142.328 148.192,143.528 148.912,145.232 L147.304,146.048 C146.848,144.776 145.792,144.032 144.28,144.032 C142,144.032 140.824,145.592 140.824,147.752 L140.824,149.864 C140.824,152.024 142,153.584 144.28,153.584 C145.84,153.584 146.968,152.84 147.64,151.424 L149.032,152.36 C148.24,154.136 146.632,155.288 144.28,155.288 Z M156.256,155.288 C152.896,155.288 150.688,152.744 150.688,148.808 C150.688,144.872 152.896,142.328 156.256,142.328 C159.568,142.328 161.608,144.872 161.608,148.376 L161.608,149.288 L152.704,149.288 L152.704,149.864 C152.704,152 154.072,153.608 156.376,153.608 C157.936,153.608 159.136,152.84 159.784,151.472 L161.152,152.456 C160.36,154.136 158.584,155.288 156.256,155.288 Z M156.256,143.936 C154.168,143.936 152.704,145.52 152.704,147.68 L152.704,147.848 L159.544,147.848 L159.544,147.584 C159.544,145.4 158.224,143.936 156.256,143.936 Z M171.112,155 L171.112,144.296 L169.096,144.296 L169.096,142.616 L171.112,142.616 L171.112,140.12 C171.112,138.416 172,137.24 173.824,137.24 L175.696,137.24 L175.696,138.92 L173.032,138.92 L173.032,142.616 L175.696,142.616 L175.696,144.296 L173.032,144.296 L173.032,155 L171.112,155 Z M182.8,155.288 C179.488,155.288 177.208,152.744 177.208,148.808 C177.208,144.872 179.488,142.328 182.8,142.328 C186.112,142.328 188.392,144.872 188.392,148.808 C188.392,152.744 186.112,155.288 182.8,155.288 Z M182.8,153.584 C184.864,153.584 186.328,152.312 186.328,149.696 L186.328,147.92 C186.328,145.304 184.864,144.032 182.8,144.032 C180.736,144.032 179.272,145.304 179.272,147.92 L179.272,149.696 C179.272,152.312 180.736,153.584 182.8,153.584 Z M193.48,155 L191.56,155 L191.56,142.616 L193.48,142.616 L193.48,144.896 L193.6,144.896 C194.032,143.72 195.16,142.616 197.176,142.616 L197.92,142.616 L197.92,144.536 L196.792,144.536 C194.728,144.536 193.48,145.424 193.48,146.6 L193.48,155 Z M67.96,185 L66.04,185 L66.04,172.616 L67.96,172.616 L67.96,174.632 L68.056,174.632 C68.656,173.24 69.712,172.328 71.56,172.328 C74.104,172.328 75.712,174.056 75.712,177.056 L75.712,185 L73.792,185 L73.792,177.392 C73.792,175.184 72.832,174.056 70.984,174.056 C69.448,174.056 67.96,174.824 67.96,176.408 L67.96,185 Z M84.352,185.288 C81.04,185.288 78.76,182.744 78.76,178.808 C78.76,174.872 81.04,172.328 84.352,172.328 C87.664,172.328 89.944,174.872 89.944,178.808 C89.944,182.744 87.664,185.288 84.352,185.288 Z M84.352,183.584 C86.416,183.584 87.88,182.312 87.88,179.696 L87.88,177.92 C87.88,175.304 86.416,174.032 84.352,174.032 C82.288,174.032 80.824,175.304 80.824,177.92 L80.824,179.696 C80.824,182.312 82.288,183.584 84.352,183.584 Z M100.696,185 L98.776,185 L98.776,172.616 L100.696,172.616 L100.696,174.896 L100.816,174.896 C101.248,173.72 102.376,172.616 104.392,172.616 L105.136,172.616 L105.136,174.536 L104.008,174.536 C101.944,174.536 100.696,175.424 100.696,176.6 L100.696,185 Z M112.12,185.288 C108.76,185.288 106.552,182.744 106.552,178.808 C106.552,174.872 108.76,172.328 112.12,172.328 C115.432,172.328 117.472,174.872 117.472,178.376 L117.472,179.288 L108.568,179.288 L108.568,179.864 C108.568,182 109.936,183.608 112.24,183.608 C113.8,183.608 115,182.84 115.648,181.472 L117.016,182.456 C116.224,184.136 114.448,185.288 112.12,185.288 Z M112.12,173.936 C110.032,173.936 108.568,175.52 108.568,177.68 L108.568,177.848 L115.408,177.848 L115.408,177.584 C115.408,175.4 114.088,173.936 112.12,173.936 Z M130.72,185 L129.64,185 C128.224,185 127.648,184.136 127.504,182.984 L127.384,182.984 C126.856,184.496 125.536,185.288 123.808,185.288 C121.192,185.288 119.656,183.848 119.656,181.544 C119.656,179.216 121.336,177.92 124.936,177.92 L127.384,177.92 L127.384,176.696 C127.384,174.944 126.424,173.984 124.456,173.984 C122.968,173.984 121.984,174.704 121.312,175.832 L120.16,174.752 C120.832,173.432 122.32,172.328 124.552,172.328 C127.528,172.328 129.304,173.888 129.304,176.504 L129.304,183.32 L130.72,183.32 L130.72,185 Z M124.12,183.656 C126.016,183.656 127.384,182.672 127.384,181.4 L127.384,179.36 L124.84,179.36 C122.656,179.36 121.672,180.032 121.672,181.232 L121.672,181.736 C121.672,182.96 122.632,183.656 124.12,183.656 Z M137.176,185.288 C134.896,185.288 133.384,184.328 132.28,182.864 L133.648,181.76 C134.608,182.96 135.76,183.656 137.32,183.656 C138.952,183.656 139.912,182.912 139.912,181.64 C139.912,180.68 139.384,179.936 137.752,179.696 L136.768,179.552 C134.488,179.216 132.784,178.28 132.784,175.976 C132.784,173.528 134.68,172.328 137.2,172.328 C139.192,172.328 140.512,173.072 141.52,174.32 L140.248,175.472 C139.696,174.704 138.64,173.96 137.056,173.96 C135.472,173.96 134.632,174.704 134.632,175.88 C134.632,177.08 135.472,177.56 137.008,177.8 L137.968,177.944 C140.704,178.352 141.76,179.552 141.76,181.424 C141.76,183.824 140.008,185.288 137.176,185.288 Z M149.824,185.288 C146.512,185.288 144.232,182.744 144.232,178.808 C144.232,174.872 146.512,172.328 149.824,172.328 C153.136,172.328 155.416,174.872 155.416,178.808 C155.416,182.744 153.136,185.288 149.824,185.288 Z M149.824,183.584 C151.888,183.584 153.352,182.312 153.352,179.696 L153.352,177.92 C153.352,175.304 151.888,174.032 149.824,174.032 C147.76,174.032 146.296,175.304 146.296,177.92 L146.296,179.696 C146.296,182.312 147.76,183.584 149.824,183.584 Z M160.504,185 L158.584,185 L158.584,172.616 L160.504,172.616 L160.504,174.632 L160.6,174.632 C161.2,173.24 162.256,172.328 164.104,172.328 C166.648,172.328 168.256,174.056 168.256,177.056 L168.256,185 L166.336,185 L166.336,177.392 C166.336,175.184 165.376,174.056 163.528,174.056 C161.992,174.056 160.504,174.824 160.504,176.408 L160.504,185 Z" id="I’m-a-magenta-senten" fill="#EE538B"></path>
            </g>
        </g>
    </g>
</svg>
